src/img/decor/category-start.svg

<svg width="225" height="686" viewBox="0 0 225 686" fill="none" xmlns="http://www.w3.org/2000/svg">
<mask id="path-1-inside-1_11_2" fill="white">
<path fill-rule="evenodd" clip-rule="evenodd" d="M0.801495 576.804C0.801495 576.804 32.0849 473.999 49.5026 435.758C66.92 397.518 90.765 368.402 132.147 336.746C173.528 305.091 193.044 233.121 124.03 146.195C55.0149 59.2699 4.02092 34.3399 -8.05301 25.6998"/>
</mask>
<path fill-rule="evenodd" clip-rule="evenodd" d="M0.801495 576.804C0.801495 576.804 32.0849 473.999 49.5026 435.758C66.92 397.518 90.765 368.402 132.147 336.746C173.528 305.091 193.044 233.121 124.03 146.195C55.0149 59.2699 4.02092 34.3399 -8.05301 25.6998" fill="black" fill-opacity="0.01"/>
<path d="M49.5026 435.758L48.5925 435.344L49.5026 435.758ZM132.147 336.746L131.539 335.952L132.147 336.746ZM124.03 146.195L124.813 145.573V145.573L124.03 146.195ZM0.801495 576.804C1.75818 577.095 1.75829 577.094 1.75852 577.094C1.75876 577.093 1.75911 577.092 1.75958 577.09C1.76052 577.087 1.76194 577.082 1.76383 577.076C1.76761 577.064 1.77327 577.045 1.7808 577.02C1.79587 576.971 1.81839 576.897 1.84821 576.799C1.90785 576.604 1.99666 576.313 2.11327 575.932C2.34647 575.171 2.69084 574.048 3.13536 572.606C4.0244 569.721 5.314 565.558 6.91599 560.442C10.12 550.209 14.5733 536.168 19.5706 520.933C29.5718 490.442 41.7306 455.234 50.4126 436.173L48.5925 435.344C39.8568 454.523 27.6651 489.838 17.6702 520.31C12.6694 535.556 8.21326 549.606 5.00737 559.844C3.40438 564.963 2.11389 569.13 1.22408 572.017C0.779177 573.46 0.434435 574.584 0.200882 575.347C0.0841064 575.728 -0.00487328 576.02 -0.0646782 576.216C-0.0945816 576.314 -0.117189 576.388 -0.132334 576.437C-0.139904 576.462 -0.145609 576.481 -0.149426 576.493C-0.151335 576.5 -0.152771 576.504 -0.153734 576.508C-0.154215 576.509 -0.154579 576.51 -0.154819 576.511C-0.155066 576.512 -0.155191 576.512 0.801495 576.804ZM50.4126 436.173C67.7506 398.107 91.4794 369.114 132.754 337.54L131.539 335.952C90.0506 367.689 66.0895 396.929 48.5925 435.344L50.4126 436.173ZM132.754 337.54C153.678 321.534 169.048 295.354 170.486 262.24C171.924 229.129 159.431 189.176 124.813 145.573L123.247 146.817C157.643 190.14 169.9 229.635 168.488 262.154C167.076 294.671 151.996 320.303 131.539 335.952L132.754 337.54ZM124.813 145.573C90.2586 102.052 60.2025 74.0336 37.2575 55.8075C14.3887 37.6419 -1.60214 29.0864 -7.47107 24.8866L-8.63495 26.5131C-2.42995 30.9533 13.1132 39.1829 36.0135 57.3736C58.8378 75.5038 88.7861 103.413 123.247 146.817L124.813 145.573Z" fill="#ECECEC" mask="url(#path-1-inside-1_11_2)"/>
<mask id="path-3-inside-2_11_2" fill="white">
<path fill-rule="evenodd" clip-rule="evenodd" d="M-1.41219 675.815C-1.41219 675.815 19.6917 676.605 45.8129 578.671C71.9344 480.738 84.5252 453.563 104.107 418.011C123.688 382.459 144.641 360.247 172.731 340.482C200.821 320.719 247.016 262.989 178.634 162.074C110.252 61.1596 -13.295 -15.2772 -33.8794 19.1614"/>
</mask>
<path fill-rule="evenodd" clip-rule="evenodd" d="M-1.41219 675.815C-1.41219 675.815 19.6917 676.605 45.8129 578.671C71.9344 480.738 84.5252 453.563 104.107 418.011C123.688 382.459 144.641 360.247 172.731 340.482C200.821 320.719 247.016 262.989 178.634 162.074C110.252 61.1596 -13.295 -15.2772 -33.8794 19.1614" fill="black" fill-opacity="0.01"/>
<path d="M45.8129 578.671L44.8467 578.414H44.8467L45.8129 578.671ZM104.107 418.011L103.231 417.528V417.528L104.107 418.011ZM172.731 340.482L172.155 339.665H172.155L172.731 340.482ZM178.634 162.074L177.806 162.635L178.634 162.074ZM-1.41219 675.815C-1.44958 676.814 -1.44721 676.814 -1.44477 676.814C-1.44384 676.814 -1.44131 676.815 -1.43946 676.815C-1.43576 676.815 -1.43174 676.815 -1.42738 676.815C-1.41868 676.815 -1.40867 676.815 -1.39737 676.815C-1.37477 676.815 -1.34702 676.815 -1.31418 676.814C-1.24847 676.811 -1.16253 676.806 -1.05689 676.794C-0.845455 676.77 -0.556225 676.721 -0.19355 676.623C0.532604 676.427 1.54602 676.036 2.81428 675.262C5.34761 673.716 8.89539 670.646 13.2206 664.547C21.8628 652.36 33.7066 627.94 46.7791 578.929L44.8467 578.414C31.798 627.335 20.0292 651.488 11.5892 663.39C7.37328 669.335 4.01252 672.188 1.77259 673.554C0.654217 674.237 -0.185181 674.549 -0.715179 674.692C-0.980579 674.764 -1.17027 674.794 -1.28072 674.806C-1.33603 674.812 -1.37178 674.814 -1.38753 674.815C-1.39541 674.815 -1.39833 674.815 -1.39621 674.815C-1.39516 674.815 -1.39285 674.815 -1.38928 674.815C-1.3875 674.815 -1.3854 674.815 -1.38299 674.815C-1.38178 674.815 -1.37973 674.815 -1.37913 674.815C-1.37701 674.816 -1.3748 674.816 -1.41219 675.815ZM46.7791 578.929C72.8877 481.044 85.4528 453.952 104.982 418.493L103.231 417.528C83.5977 453.175 70.9811 480.432 44.8467 578.414L46.7791 578.929ZM104.982 418.493C124.49 383.076 145.339 360.978 173.306 341.3L172.155 339.665C143.942 359.515 122.886 381.842 103.231 417.528L104.982 418.493ZM173.306 341.3C187.495 331.317 206.256 311.75 212.836 281.925C219.422 252.074 213.764 212.135 179.462 161.513L177.806 162.635C211.886 212.928 217.321 252.312 210.883 281.495C204.438 310.704 186.057 329.884 172.155 339.665L173.306 341.3ZM179.462 161.513C145.19 110.937 97.1093 66.5083 54.9998 39.023C33.9518 25.2847 14.3353 15.7398 -1.36302 11.8017C-9.20991 9.83317 -16.1476 9.24748 -21.8237 10.2919C-27.5286 11.3417 -31.9885 14.0487 -34.7378 18.6483L-33.0211 19.6744C-30.6242 15.6644 -26.7205 13.2266 -21.4618 12.2589C-16.1742 11.286 -9.54847 11.8102 -1.84967 13.7415C13.5434 17.6031 32.9471 27.0173 53.9066 40.6978C95.8122 68.05 143.696 112.297 177.806 162.635L179.462 161.513Z" fill="#ECECEC" mask="url(#path-3-inside-2_11_2)"/>
<g filter="url(#filter0_d_11_2)">
<path fill-rule="evenodd" clip-rule="evenodd" d="M103.328 220.937C110.758 220.937 116.781 227.135 116.781 234.781C116.781 242.427 110.758 248.625 103.328 248.625C95.8982 248.625 89.8749 242.427 89.8749 234.781C89.8749 227.135 95.8982 220.937 103.328 220.937Z" fill="black" fill-opacity="0.01"/>
<path d="M103.328 221.937C110.179 221.937 115.781 227.66 115.781 234.781C115.781 241.902 110.179 247.625 103.328 247.625C96.4772 247.625 90.8749 241.902 90.8749 234.781C90.8749 227.66 96.4772 221.937 103.328 221.937Z" stroke="#FE3E57" stroke-width="2"/>
</g>
<g filter="url(#filter1_d_11_2)">
<path fill-rule="evenodd" clip-rule="evenodd" d="M132.281 478.187C134.611 478.187 136.5 480.083 136.5 482.422C136.5 484.76 134.611 486.656 132.281 486.656C129.951 486.656 128.062 484.76 128.062 482.422C128.062 480.083 129.951 478.187 132.281 478.187Z" fill="black" fill-opacity="0.01"/>
<path d="M132.281 479.187C134.055 479.187 135.5 480.632 135.5 482.422C135.5 484.212 134.055 485.656 132.281 485.656C130.507 485.656 129.062 484.212 129.062 482.422C129.062 480.632 130.507 479.187 132.281 479.187Z" stroke="#34C3FF" stroke-width="2"/>
</g>
<g filter="url(#filter2_d_11_2)">
<path fill-rule="evenodd" clip-rule="evenodd" d="M63.0407 138.164L65.9549 141.211C66.3102 141.581 66.3102 142.184 65.9549 142.555C65.5997 142.927 65.0236 142.927 64.6684 142.555L61.7541 139.509L58.8399 142.555C58.4847 142.927 57.9087 142.927 57.5534 142.555V142.555C57.1981 142.184 57.1981 141.581 57.5534 141.211L60.4676 138.164L57.5534 135.118C57.1981 134.747 57.1981 134.145 57.5534 133.773V133.773C57.9087 133.402 58.4847 133.402 58.8399 133.773L61.7541 136.82L64.6684 133.773C65.0236 133.402 65.5997 133.402 65.9549 133.773V133.773C66.3102 134.145 66.3102 134.747 65.9549 135.118L63.0407 138.164Z" fill="#34C3FF"/>
</g>
<g filter="url(#filter3_d_11_2)">
<path fill-rule="evenodd" clip-rule="evenodd" d="M57.6132 333.811L53.2689 329.457L57.6132 325.103L61.9574 329.457L57.6132 333.811Z" fill="#5800E4"/>
</g>
<g filter="url(#filter4_d_11_2)">
<path fill-rule="evenodd" clip-rule="evenodd" d="M187.473 377.203L190.387 380.249C190.743 380.621 190.743 381.223 190.387 381.594C190.032 381.965 189.456 381.965 189.101 381.594L186.187 378.548L183.272 381.594C182.917 381.965 182.341 381.965 181.986 381.594V381.594C181.631 381.223 181.631 380.621 181.986 380.249L184.9 377.203L181.986 374.158C181.631 373.786 181.631 373.184 181.986 372.813V372.813C182.341 372.441 182.917 372.441 183.272 372.813L186.187 375.859L189.101 372.813C189.456 372.441 190.032 372.441 190.387 372.813V372.813C190.743 373.184 190.743 373.786 190.387 374.158L187.473 377.203Z" fill="#FFB534"/>
</g>
<g filter="url(#filter5_d_11_2)">
<path fill-rule="evenodd" clip-rule="evenodd" d="M192.464 89.3921L195.379 92.4381C195.734 92.8094 195.734 93.4111 195.379 93.7829C195.023 94.1538 194.447 94.1538 194.092 93.7829L191.178 90.7369L188.264 93.7829C187.908 94.1538 187.332 94.1538 186.977 93.7829V93.7829C186.622 93.4111 186.622 92.8094 186.977 92.4381L189.891 89.3921L186.977 86.3465C186.622 85.9748 186.622 85.3727 186.977 85.0018V85.0018C187.332 84.63 187.908 84.63 188.264 85.0018L191.178 88.0477L194.092 85.0018C194.447 84.63 195.023 84.63 195.379 85.0018V85.0018C195.734 85.3727 195.734 85.9748 195.379 86.3465L192.464 89.3921Z" fill="#FFB534"/>
</g>
<g filter="url(#filter6_d_11_2)">
<path fill-rule="evenodd" clip-rule="evenodd" d="M81.7417 614.594L84.6561 617.64C85.0113 618.011 85.0113 618.613 84.6561 618.985C84.3008 619.356 83.7249 619.356 83.3695 618.985L80.4552 615.939L77.5409 618.985C77.1857 619.356 76.6097 619.356 76.2545 618.985H76.2544C75.8992 618.613 75.8992 618.011 76.2544 617.64L79.1687 614.594L76.2544 611.548C75.8992 611.177 75.8992 610.575 76.2544 610.203H76.2545C76.6097 609.832 77.1857 609.832 77.5409 610.203L80.4552 613.249L83.3695 610.203C83.7249 609.832 84.3008 609.832 84.6561 610.203V610.203C85.0113 610.575 85.0113 611.177 84.6561 611.548L81.7417 614.594Z" fill="#FE3E57"/>
</g>
<defs>
<filter id="filter0_d_11_2" x="84.8749" y="218.938" width="36.9063" height="37.6873" filterUnits="userSpaceOnUse" color-interpolation-filters="sRGB">
<feFlood flood-opacity="0" result="BackgroundImageFix"/>
<feColorMatrix in="SourceAlpha" type="matrix" values="0 0 0 0 0 0 0 0 0 0 0 0 0 0 0 0 0 0 127 0" result="hardAlpha"/>
<feOffset dy="3"/>
<feGaussianBlur stdDeviation="2.5"/>
<feColorMatrix type="matrix" values="0 0 0 0 0.996078 0 0 0 0 0.243137 0 0 0 0 0.341176 0 0 0 0.4 0"/>
<feBlend mode="normal" in2="BackgroundImageFix" result="effect1_dropShadow_11_2"/>
<feBlend mode="normal" in="SourceGraphic" in2="effect1_dropShadow_11_2" result="shape"/>
</filter>
<filter id="filter1_d_11_2" x="123.062" y="476.188" width="18.4375" height="18.4686" filterUnits="userSpaceOnUse" color-interpolation-filters="sRGB">
<feFlood flood-opacity="0" result="BackgroundImageFix"/>
<feColorMatrix in="SourceAlpha" type="matrix" values="0 0 0 0 0 0 0 0 0 0 0 0 0 0 0 0 0 0 127 0" result="hardAlpha"/>
<feOffset dy="3"/>
<feGaussianBlur stdDeviation="2.5"/>
<feColorMatrix type="matrix" values="0 0 0 0 0.203922 0 0 0 0 0.764706 0 0 0 0 1 0 0 0 0.4 0"/>
<feBlend mode="normal" in2="BackgroundImageFix" result="effect1_dropShadow_11_2"/>
<feBlend mode="normal" in="SourceGraphic" in2="effect1_dropShadow_11_2" result="shape"/>
</filter>
<filter id="filter2_d_11_2" x="52.2869" y="131.495" width="18.9344" height="19.3385" filterUnits="userSpaceOnUse" color-interpolation-filters="sRGB">
<feFlood flood-opacity="0" result="BackgroundImageFix"/>
<feColorMatrix in="SourceAlpha" type="matrix" values="0 0 0 0 0 0 0 0 0 0 0 0 0 0 0 0 0 0 127 0" result="hardAlpha"/>
<feOffset dy="3"/>
<feGaussianBlur stdDeviation="2.5"/>
<feColorMatrix type="matrix" values="0 0 0 0 0.203922 0 0 0 0 0.764706 0 0 0 0 1 0 0 0 0.4 0"/>
<feBlend mode="normal" in2="BackgroundImageFix" result="effect1_dropShadow_11_2"/>
<feBlend mode="normal" in="SourceGraphic" in2="effect1_dropShadow_11_2" result="shape"/>
</filter>
<filter id="filter3_d_11_2" x="48.2689" y="323.103" width="18.6885" height="18.7083" filterUnits="userSpaceOnUse" color-interpolation-filters="sRGB">
<feFlood flood-opacity="0" result="BackgroundImageFix"/>
<feColorMatrix in="SourceAlpha" type="matrix" values="0 0 0 0 0 0 0 0 0 0 0 0 0 0 0 0 0 0 127 0" result="hardAlpha"/>
<feOffset dy="3"/>
<feGaussianBlur stdDeviation="2.5"/>
<feColorMatrix type="matrix" values="0 0 0 0 0.345098 0 0 0 0 0 0 0 0 0 0.894118 0 0 0 0.4 0"/>
<feBlend mode="normal" in2="BackgroundImageFix" result="effect1_dropShadow_11_2"/>
<feBlend mode="normal" in="SourceGraphic" in2="effect1_dropShadow_11_2" result="shape"/>
</filter>
<filter id="filter4_d_11_2" x="176.719" y="370.534" width="18.9344" height="19.338" filterUnits="userSpaceOnUse" color-interpolation-filters="sRGB">
<feFlood flood-opacity="0" result="BackgroundImageFix"/>
<feColorMatrix in="SourceAlpha" type="matrix" values="0 0 0 0 0 0 0 0 0 0 0 0 0 0 0 0 0 0 127 0" result="hardAlpha"/>
<feOffset dy="3"/>
<feGaussianBlur stdDeviation="2.5"/>
<feColorMatrix type="matrix" values="0 0 0 0 1 0 0 0 0 0.709804 0 0 0 0 0.203922 0 0 0 0.4 0"/>
<feBlend mode="normal" in2="BackgroundImageFix" result="effect1_dropShadow_11_2"/>
<feBlend mode="normal" in="SourceGraphic" in2="effect1_dropShadow_11_2" result="shape"/>
</filter>
<filter id="filter5_d_11_2" x="181.711" y="82.7229" width="18.9344" height="19.3381" filterUnits="userSpaceOnUse" color-interpolation-filters="sRGB">
<feFlood flood-opacity="0" result="BackgroundImageFix"/>
<feColorMatrix in="SourceAlpha" type="matrix" values="0 0 0 0 0 0 0 0 0 0 0 0 0 0 0 0 0 0 127 0" result="hardAlpha"/>
<feOffset dy="3"/>
<feGaussianBlur stdDeviation="2.5"/>
<feColorMatrix type="matrix" values="0 0 0 0 1 0 0 0 0 0.709804 0 0 0 0 0.203922 0 0 0 0.4 0"/>
<feBlend mode="normal" in2="BackgroundImageFix" result="effect1_dropShadow_11_2"/>
<feBlend mode="normal" in="SourceGraphic" in2="effect1_dropShadow_11_2" result="shape"/>
</filter>
<filter id="filter6_d_11_2" x="70.988" y="607.925" width="18.9345" height="19.3389" filterUnits="userSpaceOnUse" color-interpolation-filters="sRGB">
<feFlood flood-opacity="0" result="BackgroundImageFix"/>
<feColorMatrix in="SourceAlpha" type="matrix" values="0 0 0 0 0 0 0 0 0 0 0 0 0 0 0 0 0 0 127 0" result="hardAlpha"/>
<feOffset dy="3"/>
<feGaussianBlur stdDeviation="2.5"/>
<feColorMatrix type="matrix" values="0 0 0 0 0.996078 0 0 0 0 0.243137 0 0 0 0 0.341176 0 0 0 0.4 0"/>
<feBlend mode="normal" in2="BackgroundImageFix" result="effect1_dropShadow_11_2"/>
<feBlend mode="normal" in="SourceGraphic" in2="effect1_dropShadow_11_2" result="shape"/>
</filter>
</defs>
</svg>

<svg width="225" height="686" fill="none" xmlns="http://www.w3.org/2000/svg"><mask id="path-1-inside-1_11_2" fill="#fff"><path fill-rule="evenodd" clip-rule="evenodd" d="M.801 576.804s31.284-102.805 48.702-141.046c17.417-38.24 41.262-67.356 82.644-99.012 41.381-31.655 60.897-103.625-8.117-190.551C55.015 59.27 4.02 34.34-8.053 25.7"/></mask><path fill-rule="evenodd" clip-rule="evenodd" d="M.801 576.804s31.284-102.805 48.702-141.046c17.417-38.24 41.262-67.356 82.644-99.012 41.381-31.655 60.897-103.625-8.117-190.551C55.015 59.27 4.02 34.34-8.053 25.7" fill="#000" fill-opacity=".01"/><path d="M49.503 435.758l-.91-.414.91.414zm82.644-99.012l-.608-.794.608.794zm-8.117-190.551l.783-.622-.783.622zM.801 576.804c.957.291.957.29.958.29v-.004l.005-.014.017-.056.067-.221.265-.867 1.022-3.326a3122.245 3122.245 0 0116.435-51.673c10.002-30.491 22.16-65.699 30.843-84.76l-1.82-.829c-8.736 19.179-20.928 54.494-30.923 84.966A3131.565 3131.565 0 00.2 575.347l-.265.869-.067.221-.017.056-.005.015v.003c-.001.001-.001.001.955.293zm49.612-140.631c17.338-38.066 41.066-67.059 82.341-98.633l-1.215-1.588c-41.488 31.737-65.45 60.977-82.946 99.392l1.82.829zm82.341-98.633c20.924-16.006 36.294-42.186 37.732-75.3 1.438-33.111-11.055-73.064-45.673-116.667l-1.566 1.244c34.396 43.323 46.653 82.818 45.241 115.337-1.412 32.517-16.492 58.149-36.949 73.798l1.215 1.588zm-7.941-191.967c-34.554-43.521-64.61-71.54-87.555-89.766-22.87-18.165-38.86-26.72-44.73-30.92l-1.163 1.626c6.205 4.44 21.748 12.67 44.648 30.86 22.825 18.13 52.773 46.04 87.234 89.444l1.566-1.244z" fill="#ECECEC" mask="url(#path-1-inside-1_11_2)"/><mask id="path-3-inside-2_11_2" fill="#fff"><path fill-rule="evenodd" clip-rule="evenodd" d="M-1.412 675.815s21.104.79 47.225-97.144c26.121-97.933 38.712-125.108 58.294-160.66 19.581-35.552 40.534-57.764 68.624-77.529 28.09-19.763 74.285-77.493 5.903-178.408C110.252 61.16-13.295-15.277-33.879 19.161"/></mask><path fill-rule="evenodd" clip-rule="evenodd" d="M-1.412 675.815s21.104.79 47.225-97.144c26.121-97.933 38.712-125.108 58.294-160.66 19.581-35.552 40.534-57.764 68.624-77.529 28.09-19.763 74.285-77.493 5.903-178.408C110.252 61.16-13.295-15.277-33.879 19.161" fill="#000" fill-opacity=".01"/><path d="M45.813 578.671l-.966-.257.966.257zm58.294-160.66l-.876-.483.876.483zm68.624-77.529l-.576-.817.576.817zm5.903-178.408l-.828.561.828-.561zM-1.412 675.815c-.038.999-.035.999-.033.999l.006.001h.042l.083-.001c.066-.003.151-.008.257-.02.212-.024.5-.073.863-.171.727-.196 1.74-.587 3.008-1.361 2.534-1.546 6.081-4.616 10.407-10.715 8.642-12.187 20.486-36.607 33.558-85.618l-1.932-.515c-13.049 48.921-24.818 73.074-33.258 84.976-4.216 5.945-7.576 8.798-9.816 10.164-1.119.683-1.958.995-2.488 1.138a3.762 3.762 0 01-.566.114c-.055.006-.09.008-.107.009h-.008.017c.002.001.004.001-.033 1zm48.191-96.886c26.109-97.885 38.674-124.977 58.203-160.436l-1.751-.965c-19.633 35.647-32.25 62.904-58.384 160.886l1.932.515zm58.203-160.436c19.508-35.417 40.357-57.515 68.324-77.193l-1.151-1.635c-28.213 19.85-49.269 42.177-68.924 77.863l1.751.965zm68.324-77.193c14.189-9.983 32.95-29.55 39.53-59.375 6.586-29.851.928-69.79-33.374-120.412l-1.656 1.122c34.08 50.293 39.515 89.677 33.077 118.86-6.445 29.209-24.826 48.389-38.728 58.17l1.151 1.635zm6.156-179.787C145.19 110.937 97.109 66.508 55 39.023 33.952 25.285 14.335 15.74-1.363 11.802c-7.847-1.969-14.785-2.555-20.46-1.51-5.706 1.05-10.165 3.757-12.915 8.356l1.717 1.026c2.397-4.01 6.3-6.447 11.56-7.415 5.287-.973 11.913-.449 19.611 1.482 15.393 3.862 34.797 13.276 55.757 26.957 41.905 27.352 89.789 71.599 123.899 121.937l1.656-1.122z" fill="#ECECEC" mask="url(#path-3-inside-2_11_2)"/><g filter="url(#filter0_d_11_2)"><path fill-rule="evenodd" clip-rule="evenodd" d="M103.328 220.937c7.43 0 13.453 6.198 13.453 13.844 0 7.646-6.023 13.844-13.453 13.844s-13.453-6.198-13.453-13.844c0-7.646 6.023-13.844 13.453-13.844z" fill="#000" fill-opacity=".01"/><path d="M103.328 221.937c6.851 0 12.453 5.723 12.453 12.844 0 7.121-5.602 12.844-12.453 12.844-6.85 0-12.453-5.723-12.453-12.844 0-7.121 5.602-12.844 12.453-12.844z" stroke="#FE3E57" stroke-width="2"/></g><g filter="url(#filter1_d_11_2)"><path fill-rule="evenodd" clip-rule="evenodd" d="M132.281 478.187a4.227 4.227 0 014.219 4.235 4.227 4.227 0 01-4.219 4.234 4.227 4.227 0 01-4.219-4.234 4.227 4.227 0 014.219-4.235z" fill="#000" fill-opacity=".01"/><path d="M132.281 479.187a3.227 3.227 0 013.219 3.235 3.226 3.226 0 01-3.219 3.234 3.226 3.226 0 01-3.219-3.234 3.227 3.227 0 013.219-3.235z" stroke="#34C3FF" stroke-width="2"/></g><g filter="url(#filter2_d_11_2)"><path fill-rule="evenodd" clip-rule="evenodd" d="M63.04 138.164l2.915 3.047a.98.98 0 010 1.344.881.881 0 01-1.287 0l-2.914-3.046-2.914 3.046a.881.881 0 01-1.287 0 .98.98 0 010-1.344l2.915-3.047-2.915-3.046a.982.982 0 010-1.345.883.883 0 011.287 0l2.914 3.047 2.914-3.047a.883.883 0 011.287 0 .982.982 0 010 1.345l-2.914 3.046z" fill="#34C3FF"/></g><g filter="url(#filter3_d_11_2)"><path fill-rule="evenodd" clip-rule="evenodd" d="M57.613 333.811l-4.344-4.354 4.344-4.354 4.344 4.354-4.344 4.354z" fill="#5800E4"/></g><g filter="url(#filter4_d_11_2)"><path fill-rule="evenodd" clip-rule="evenodd" d="M187.473 377.203l2.914 3.046a.98.98 0 010 1.345.882.882 0 01-1.286 0l-2.914-3.046-2.915 3.046a.882.882 0 01-1.286 0 .982.982 0 010-1.345l2.914-3.046-2.914-3.045a.982.982 0 010-1.345.88.88 0 011.286 0l2.915 3.046 2.914-3.046a.88.88 0 011.286 0 .98.98 0 010 1.345l-2.914 3.045z" fill="#FFB534"/></g><g filter="url(#filter5_d_11_2)"><path fill-rule="evenodd" clip-rule="evenodd" d="M192.464 89.392l2.915 3.046a.982.982 0 010 1.345.883.883 0 01-1.287 0l-2.914-3.046-2.914 3.046a.883.883 0 01-1.287 0 .982.982 0 010-1.345l2.914-3.046-2.914-3.045a.982.982 0 010-1.345.882.882 0 011.287 0l2.914 3.046 2.914-3.046a.882.882 0 011.287 0 .982.982 0 010 1.345l-2.915 3.045z" fill="#FFB534"/></g><g filter="url(#filter6_d_11_2)"><path fill-rule="evenodd" clip-rule="evenodd" d="M81.742 614.594l2.914 3.046a.982.982 0 010 1.345.883.883 0 01-1.287 0l-2.914-3.046-2.914 3.046a.883.883 0 01-1.287 0 .982.982 0 010-1.345l2.915-3.046-2.915-3.046a.982.982 0 010-1.345.883.883 0 011.287 0l2.914 3.046 2.915-3.046a.883.883 0 011.286 0 .982.982 0 010 1.345l-2.914 3.046z" fill="#FE3E57"/></g><defs><filter id="filter0_d_11_2" x="84.875" y="218.938" width="36.906" height="37.687" filterUnits="userSpaceOnUse" color-interpolation-filters="sRGB"><feFlood flood-opacity="0" result="BackgroundImageFix"/><feColorMatrix in="SourceAlpha" values="0 0 0 0 0 0 0 0 0 0 0 0 0 0 0 0 0 0 127 0" result="hardAlpha"/><feOffset dy="3"/><feGaussianBlur stdDeviation="2.5"/><feColorMatrix values="0 0 0 0 0.996078 0 0 0 0 0.243137 0 0 0 0 0.341176 0 0 0 0.4 0"/><feBlend in2="BackgroundImageFix" result="effect1_dropShadow_11_2"/><feBlend in="SourceGraphic" in2="effect1_dropShadow_11_2" result="shape"/></filter><filter id="filter1_d_11_2" x="123.062" y="476.188" width="18.438" height="18.469" filterUnits="userSpaceOnUse" color-interpolation-filters="sRGB"><feFlood flood-opacity="0" result="BackgroundImageFix"/><feColorMatrix in="SourceAlpha" values="0 0 0 0 0 0 0 0 0 0 0 0 0 0 0 0 0 0 127 0" result="hardAlpha"/><feOffset dy="3"/><feGaussianBlur stdDeviation="2.5"/><feColorMatrix values="0 0 0 0 0.203922 0 0 0 0 0.764706 0 0 0 0 1 0 0 0 0.4 0"/><feBlend in2="BackgroundImageFix" result="effect1_dropShadow_11_2"/><feBlend in="SourceGraphic" in2="effect1_dropShadow_11_2" result="shape"/></filter><filter id="filter2_d_11_2" x="52.287" y="131.495" width="18.934" height="19.338" filterUnits="userSpaceOnUse" color-interpolation-filters="sRGB"><feFlood flood-opacity="0" result="BackgroundImageFix"/><feColorMatrix in="SourceAlpha" values="0 0 0 0 0 0 0 0 0 0 0 0 0 0 0 0 0 0 127 0" result="hardAlpha"/><feOffset dy="3"/><feGaussianBlur stdDeviation="2.5"/><feColorMatrix values="0 0 0 0 0.203922 0 0 0 0 0.764706 0 0 0 0 1 0 0 0 0.4 0"/><feBlend in2="BackgroundImageFix" result="effect1_dropShadow_11_2"/><feBlend in="SourceGraphic" in2="effect1_dropShadow_11_2" result="shape"/></filter><filter id="filter3_d_11_2" x="48.269" y="323.103" width="18.689" height="18.708" filterUnits="userSpaceOnUse" color-interpolation-filters="sRGB"><feFlood flood-opacity="0" result="BackgroundImageFix"/><feColorMatrix in="SourceAlpha" values="0 0 0 0 0 0 0 0 0 0 0 0 0 0 0 0 0 0 127 0" result="hardAlpha"/><feOffset dy="3"/><feGaussianBlur stdDeviation="2.5"/><feColorMatrix values="0 0 0 0 0.345098 0 0 0 0 0 0 0 0 0 0.894118 0 0 0 0.4 0"/><feBlend in2="BackgroundImageFix" result="effect1_dropShadow_11_2"/><feBlend in="SourceGraphic" in2="effect1_dropShadow_11_2" result="shape"/></filter><filter id="filter4_d_11_2" x="176.719" y="370.534" width="18.934" height="19.338" filterUnits="userSpaceOnUse" color-interpolation-filters="sRGB"><feFlood flood-opacity="0" result="BackgroundImageFix"/><feColorMatrix in="SourceAlpha" values="0 0 0 0 0 0 0 0 0 0 0 0 0 0 0 0 0 0 127 0" result="hardAlpha"/><feOffset dy="3"/><feGaussianBlur stdDeviation="2.5"/><feColorMatrix values="0 0 0 0 1 0 0 0 0 0.709804 0 0 0 0 0.203922 0 0 0 0.4 0"/><feBlend in2="BackgroundImageFix" result="effect1_dropShadow_11_2"/><feBlend in="SourceGraphic" in2="effect1_dropShadow_11_2" result="shape"/></filter><filter id="filter5_d_11_2" x="181.711" y="82.723" width="18.934" height="19.338" filterUnits="userSpaceOnUse" color-interpolation-filters="sRGB"><feFlood flood-opacity="0" result="BackgroundImageFix"/><feColorMatrix in="SourceAlpha" values="0 0 0 0 0 0 0 0 0 0 0 0 0 0 0 0 0 0 127 0" result="hardAlpha"/><feOffset dy="3"/><feGaussianBlur stdDeviation="2.5"/><feColorMatrix values="0 0 0 0 1 0 0 0 0 0.709804 0 0 0 0 0.203922 0 0 0 0.4 0"/><feBlend in2="BackgroundImageFix" result="effect1_dropShadow_11_2"/><feBlend in="SourceGraphic" in2="effect1_dropShadow_11_2" result="shape"/></filter><filter id="filter6_d_11_2" x="70.988" y="607.925" width="18.934" height="19.339" filterUnits="userSpaceOnUse" color-interpolation-filters="sRGB"><feFlood flood-opacity="0" result="BackgroundImageFix"/><feColorMatrix in="SourceAlpha" values="0 0 0 0 0 0 0 0 0 0 0 0 0 0 0 0 0 0 127 0" result="hardAlpha"/><feOffset dy="3"/><feGaussianBlur stdDeviation="2.5"/><feColorMatrix values="0 0 0 0 0.996078 0 0 0 0 0.243137 0 0 0 0 0.341176 0 0 0 0.4 0"/><feBlend in2="BackgroundImageFix" result="effect1_dropShadow_11_2"/><feBlend in="SourceGraphic" in2="effect1_dropShadow_11_2" result="shape"/></filter></defs></svg>
